X:70
T:Mrs Cholmondelyâ€™s. JBs.070
S:Jas.Blackshaw MS, 1837, N.Shropshire
A:North Shropshire
Z:T. Weatherall 2006
M:6/8
L:1/8
Q:3/8=120
R:Jig
K:C
G|c2eg2câ€™|a2fd2f|e2c cBc|d2BG2B|!
c2eg2câ€™|a2fd2f|e2c dcB|c3z2:|!
|:e|d2BG2f|e2c cde|f2de2c|BcBG2e|!
d2BG2f|e2g câ€™ba|gfe dcB|c3z2:|

